X:1
T:Fratelli d'Italia
T:Fratelli d'Italia
T:Michele Novaro
T:Goffredo Mameli
C:Michele Novaro
Z:Goffredo Mameli
%%score { 1 | 2 }
L:1/8
M:4/4
K:Bb
V:1 treble nm="Piano" snm="Pno."
V:2 bass 
V:1
 F2 |"Bb" F>G F4 d2 | d>e d4 d2 | f>e d4"F7" c2 |"Bb" d>c B4 F2 | F>G F4 d2 | d>e d4 d2 | %7
 f>e d4"F7" c2 |"Bb" d>c B4 d2 |"D7" d2 A4 B>c |"Gm" B>A G4 B2 |"D7" A>B c4 D2 |"Gm" d4"F7" e2 F2 | %13
"Bb" F>G F4 d2 | d>e d4 d2 | f>e d3 f"F7"cf |"Bb" B2 z2 z2 z2 |] %17
V:2
 z2 | [B,,,F,B,D]2 [F,B,D]2 [F,B,D]2 [F,B,D]2 | [B,,,F,B,D]2 [F,B,D]2 [F,B,D]2 [F,B,D]2 | %3
 [B,,,F,B,D]2 [F,B,D]2 [F,B,D]2 [F,,A,CE]2 | [B,,,F,B,D]2 [F,B,D]2 [F,B,D]2 [F,B,D]2 | %5
 [B,,,F,B,D]2 [F,B,D]2 [F,B,D]2 [F,B,D]2 | [B,,,F,B,D]2 [F,B,D]2 [F,B,D]2 [F,B,D]2 | %7
 [B,,,F,B,D]2 [F,B,D]2 [F,B,D]2 [F,,A,CE]2 | [B,,,F,B,D]2 [F,B,D]2 [F,B,D]2 z2 | %9
 D,[^F,A,C][F,A,C][F,A,C] D,[F,A,C][F,A,C][F,A,C] | %10
 G,,[D,G,B,][D,G,B,][D,G,B,] G,,[D,G,B,][D,G,B,][D,G,B,] | %11
 D,[^F,A,C][F,A,C][F,A,C] D,[F,A,C][F,A,C][F,A,C] | G,,[D,G,B,][D,G,B,][D,G,B,] [F,,A,CE]2 z2 | %13
 [B,,,F,B,D]2 [F,B,D]2 [F,B,D]2 [F,B,D]2 | [B,,,F,B,D]2 [F,B,D]2 [F,B,D]2 [F,B,D]2 | %15
 [B,,,F,B,D]2 [F,B,D]2 [F,B,D]2 [F,,A,CE]2 | [B,,,F,B,D]2 z2 z4 |] %17

